X: 1
T: the Black Bear
R: hornpipe
B: Scots Guards v.1 p.8 #12
S: printed page in Concord Slow Scottish Session collection of unknown origin
Z: 2015 John Chambers <jc:trillian.mit.edu> (plus the chords)
M: C
L: 1/8
K: D
(3ABc |\
"D"d2 d2 f>d a>f | "Bm"d2 d2 f>d a>f |\
"Em"e2 B2 "E7"B2 e>d | "A7"c<d B>c A>B c<A |\
"D"d2 d2 f>d a>f | "Bm"d2 d2 f>d a>f |
"Em"e2 e2 "A7"e>g f>e | "D"d2 f2 d2 :|\
e2 |\
"A7"A2 A>B "D"d2 d>e | "A7"g2 f>e "D"f<a f>d |\
"A7"A2 A>B "D"d2 d>e | "A7"g2 f>e "D"f<a f>d |
"A"a>A A<A c<A A<A | "E7"d>B B<B "A"e>c c<c |\
"D"d>f d>f "Em"e>g f>g | "A7"a>A a2 a>g f>e |\
"D"d2 d2 f>d a>f | "Bm"d2 d2 f>d a>f |
"Em"e2 B2 "E7"B2 e>d | "A7"c<d B>c A>B c<A |\
"D"d2 d2 f>d a>f | "Bm"d2 d2 f>d a>f |\
"Em"e2 e2 "A7"e>g f>e | "D"d2 f2 d2 |]
